X:1
T: Traditional Jig
C:
R:Jig
Q:180
K:C
M:6/8
L:1/16
|:c2|B6 G2B2d2|c2A2F2 F4c2|B2A2B2 G2B2d2|c2B2c2 e2d2c2|
B2d2B2 G2B2d2|c2A2F2 A2B2c2|B2d2B2 c2A2F2|A2G2G2 G4:|
|:A2|F2f2f2 f2e2d2|c2d2c2 c2A2F2|G2g2g2 g2^f2g2|a2f2d2 d4e2|
f2g2f2 f2e2d2|c2A2F2 F2A2c2|Bcd2B2 c2A2F2|A2G2G2 G4:|
